svgs/light/radiation.svg

<svg xmlns="http://www.w3.org/2000/svg" viewBox="0 0 512 512"><!--! Font Awesome Pro 6.3.0 by @fontawesome - https://fontawesome.com License - https://fontawesome.com/license (Commercial License) Copyright 2023 Fonticons, Inc. --><path d="M325.2 317.8c-4.656-7.532-14.59-9.782-22.03-5.094c-7.5 4.688-9.781 14.53-5.094 22.03l63.44 101.6c1.938 3.219 2.5 6.157 1.719 9.188c-1.031 4.032-4.125 7.094-5.75 8.001c-61.53 34.81-142.5 34.44-202.7 .125c-1.781-1.031-5-4.25-6.031-8.376C148 442.3 148.6 439.5 150.6 436.3l63.38-101.7c4.656-7.5 2.375-17.38-5.125-22.06c-7.406-4.563-17.38-2.406-22.06 5.125l-63.31 101.7c-6.594 10.44-8.625 22.03-5.844 33.5c2.844 11.63 10.88 22.53 21.09 28.53C173.9 501.4 214.5 512 256 512c41.25 0 81.78-10.59 117.3-30.69c9.938-5.719 17.94-16.38 20.91-27.85c2.938-11.47 1.062-23.16-5.5-33.94L325.2 317.8zM479.9 124.1c-20.59-35.75-50.03-65.57-85.19-86.26c-9.906-5.782-23.16-7.375-34.56-4.219c-11.44 3.188-20.62 10.63-26.69 21.75l-56.31 105.9c-4.156 7.782-1.188 17.47 6.625 21.63c7.719 4.188 17.5 1.219 21.62-6.625l56.22-105.7c1.812-3.313 4.062-5.25 7.094-6.094c4.094-1.188 8.188 .0313 9.812 .9688c30.34 17.88 55.81 43.69 73.69 74.66C470.2 171.3 479.8 206.2 480 240.1c0 2.063-1.188 6.438-4.25 9.376c-2.219 2.125-4.625 3.531-8.688 2.875L347.3 249.2c-8.969 .25-16.22 6.657-16.53 15.47c-.2813 8.813 6.625 16.22 15.47 16.53c0 0 121 4.063 121.7 4.063c11.56 0 21.88-4.031 29.94-11.75C506.5 265.2 511.9 252.8 512 240.1C511.8 200.5 500.7 160.1 479.9 124.1zM181.1 264.5c-.3125-8.813-8-16.44-16.56-15.44l-119.7 4.188C41.09 253.3 38.31 252.4 36.06 250.2C33.09 247.3 32 243.1 32 241.2c.3125-35.22 9.938-70.19 27.78-101.2c18-31.16 43.44-56.97 73.5-74.54C135.1 64.5 139.4 63.35 143.5 64.5c2.938 .8751 5.094 2.781 6.812 6.063l56.38 105.8c4.156 7.813 13.88 10.72 21.66 6.594c7.781-4.157 10.75-13.84 6.594-21.66L178.6 55.56C172.8 44.63 163.8 37.09 152.5 33.78c-11.5-3.281-24.94-1.844-35.22 4.032C82.28 58.28 52.81 88.1 32.09 124.1C11.47 159.8 .375 200.2 0 241C-.0313 252.5 5.219 264.8 13.69 273c8.156 8.032 18.78 12.25 30.91 12.25l121.1-4.188C174.5 280.8 181.4 273.4 181.1 264.5zM208 255.1c0 26.51 21.49 48 48 48s48-21.49 48-48S282.5 207.1 256 207.1S208 229.5 208 255.1zM256 239.1c8.822 0 16 7.178 16 16S264.8 271.1 256 271.1S240 264.8 240 255.1S247.2 239.1 256 239.1z"/></svg>

<svg xmlns="http://www.w3.org/2000/svg" viewBox="0 0 512 512"><!-- Font Awesome Pro 6.0.0-alpha2 by @fontawesome - https://fontawesome.com License - https://fontawesome.com/license (Commercial License) --><path d="M325.188 317.8C320.531 310.268 310.594 308.018 303.156 312.706C295.656 317.394 293.375 327.238 298.063 334.739L361.5 436.308C363.438 439.527 364 442.464 363.219 445.496C362.188 449.527 359.094 452.59 357.469 453.496C295.938 488.311 214.938 487.936 154.75 453.621C152.969 452.59 149.75 449.371 148.719 445.246C148 442.277 148.594 439.464 150.594 436.308L213.969 334.582C218.625 327.082 216.344 317.206 208.844 312.518C201.438 307.956 191.469 310.112 186.781 317.644L123.469 419.307C116.875 429.745 114.844 441.339 117.625 452.809C120.469 464.434 128.5 475.341 138.719 481.342C173.906 501.406 214.469 512 256 512C297.25 512 337.781 501.406 373.313 481.311C383.25 475.591 391.25 464.934 394.219 453.465C397.156 441.996 395.281 430.307 388.719 419.525L325.188 317.8ZM479.906 124.069C459.313 88.317 429.875 58.502 394.719 37.813C384.813 32.032 371.563 30.438 360.156 33.594C348.719 36.782 339.531 44.22 333.469 55.346L277.156 161.227C273 169.009 275.969 178.697 283.781 182.854C291.5 187.042 301.281 184.073 305.406 176.228L361.625 70.534C363.438 67.221 365.688 65.284 368.719 64.44C372.813 63.252 376.906 64.471 378.531 65.409C408.875 83.285 434.344 109.099 452.219 140.07C470.188 171.259 479.813 206.199 480 240.983C480 243.045 478.813 247.421 475.75 250.358C473.531 252.483 471.125 253.89 467.063 253.233L347.313 249.202C338.344 249.452 331.094 255.859 330.781 264.672C330.5 273.485 337.406 280.891 346.25 281.204L465.906 285.235C466.563 285.235 467.25 285.267 467.906 285.267C479.469 285.267 489.781 281.235 497.844 273.516C506.5 265.234 511.938 252.827 512 240.983C511.781 200.48 500.688 160.071 479.906 124.069ZM181.094 264.547C180.781 255.734 173.094 248.108 164.531 249.108L44.875 253.296C41.094 253.265 38.313 252.421 36.063 250.202C33.094 247.296 32 243.076 32 241.233C32.313 206.012 41.938 171.041 59.781 140.07C77.781 108.912 103.219 83.097 133.281 65.534C135.063 64.503 139.406 63.346 143.531 64.503C146.469 65.378 148.625 67.284 150.344 70.565L206.719 176.353C210.875 184.166 220.594 187.073 228.375 182.948C236.156 178.791 239.125 169.103 234.969 161.29L178.625 55.564C172.844 44.626 163.813 37.095 152.469 33.782C140.969 30.5 127.531 31.938 117.25 37.813C82.281 58.283 52.813 88.098 32.094 124.069C11.469 159.821 0.375 200.23 0 241.045C-0.031 252.483 5.219 264.765 13.688 273.047C21.844 281.079 32.469 285.298 44.594 285.298H45.813L165.656 281.11C174.469 280.798 181.406 273.391 181.094 264.547ZM208 255.984C208 282.495 229.49 303.987 256 303.987S304 282.495 304 255.984S282.51 207.98 256 207.98S208 229.472 208 255.984ZM256 239.983C264.822 239.983 272 247.161 272 255.984S264.822 271.985 256 271.985S240 264.806 240 255.984S247.178 239.983 256 239.983Z"/></svg>
